X:0167
T:Quick Step 2d. Batn. Royals.
M:2/4
L:1/8
Q:1/4=84
I: :: ::
Z:Jack Campin * www.campin.me.uk * 2009
K:Hp
 f/g/ | aecA        |aecA|(d/c/B/A/) GB      |gBB
(f/g/)| aecA        |aecA|(d/c/B/A/) G/A/B/d/|cAA:|
 c    |(A/B/c/d/) eg|fdec| d/c/B/A/  GB      |gBB
 c    | A/B/c/d/  eg|fdec| d/c/B/A/  G/A/B/d/|cAA:|
(f/g/)| afge        |fdec| d/c/B/A/  GB      |gGG
(f/g/)| afge        |fdec| d/c/B/A/  G/A/B/d/|cAA:|

